X:139
T:Mairi's Wedding
M:2/4
L:1/8
K:D
"D"A>A AB|"D"de f2|"Em"ed Bd|"A7"fe f2|"D"A>A AB|"D"de "D/F"f2|"G"ed BG|"A7"A2A2|!
"D"a>a ab|"D"ag "Bm"f2|"Em"ed Bd|"A7"fe f2|"D"a>a ab|"D"ag "Bm"f2|"Em"ed "G"BG|"A7"A2A2|]

